flaticon/army-badges/medal-8.svg

<svg xmlns="http://www.w3.org/2000/svg" width="32" height="32" viewBox="0 0 24 24">
    <path d="M 22.515625 14 L 23.917969 12.28125 C 23.996094 12.160156 24.035156 11.960938 23.957031 11.839844 C 23.875 11.679688 23.757812 11.601562 23.597656 11.601562 L 20.796875 11.601562 L 20.796875 10.402344 C 20.796875 10.160156 20.636719 10 20.398438 10 L 19.316406 10 C 18.410156 6.691406 15.449219 4.402344 12 4.402344 C 8.550781 4.402344 5.589844 6.691406 4.683594 10 L 3.601562 10 C 3.363281 10 3.203125 10.160156 3.203125 10.402344 L 3.203125 11.601562 L 0.402344 11.601562 C 0.242188 11.601562 0.125 11.71875 0.0429688 11.800781 C -0.0351562 11.960938 0.00390625 12.121094 0.0820312 12.238281 L 1.484375 14 L 0.0820312 15.71875 C 0.00390625 15.839844 -0.0351562 16.039062 0.0429688 16.160156 C 0.125 16.320312 0.242188 16.398438 0.402344 16.398438 L 4.800781 16.398438 C 5.042969 16.398438 5.203125 16.238281 5.203125 16 L 5.203125 15.367188 C 6.476562 17.929688 9.109375 19.597656 12 19.597656 C 14.890625 19.597656 17.523438 17.929688 18.796875 15.367188 L 18.796875 16 C 18.796875 16.238281 18.957031 16.398438 19.199219 16.398438 L 23.597656 16.398438 C 23.757812 16.398438 23.875 16.320312 23.957031 16.199219 C 24.035156 16.039062 23.996094 15.878906 23.917969 15.757812 Z M 12 5.203125 C 15.039062 5.203125 17.636719 7.160156 18.519531 10 L 17.664062 10 C 16.820312 7.632812 14.539062 6 12 6 C 9.460938 6 7.179688 7.632812 6.335938 10 L 5.523438 10 C 6.363281 7.160156 8.960938 5.203125 12 5.203125 Z M 16.796875 10 L 7.203125 10 C 8 8.121094 9.921875 6.800781 12 6.800781 C 14.078125 6.800781 16 8.082031 16.796875 10 Z M 4.003906 10.800781 L 19.996094 10.800781 L 19.996094 14 L 17.238281 14 C 17.1875 13.972656 17.128906 13.960938 17.078125 13.960938 L 6.960938 13.960938 C 6.910156 13.960938 6.859375 13.972656 6.8125 14 L 4.003906 14 Z M 16.359375 14.800781 C 15.4375 16.277344 13.757812 17.199219 12 17.199219 C 10.242188 17.199219 8.601562 16.277344 7.640625 14.800781 Z M 4.402344 15.597656 L 1.242188 15.597656 L 2.324219 14.238281 C 2.441406 14.121094 2.441406 13.917969 2.324219 13.757812 L 1.242188 12.398438 L 3.203125 12.398438 L 3.203125 14.398438 C 3.203125 14.640625 3.363281 14.800781 3.601562 14.800781 L 4.402344 14.800781 Z M 12 18.796875 C 9.320312 18.796875 6.882812 17.199219 5.800781 14.800781 L 6.722656 14.800781 C 7.769531 16.742188 9.808594 18 12 18 C 14.191406 18 16.234375 16.777344 17.3125 14.800781 L 18.199219 14.800781 C 17.078125 17.199219 14.679688 18.796875 12 18.796875 Z M 19.597656 15.597656 L 19.597656 14.800781 L 20.398438 14.800781 C 20.636719 14.800781 20.796875 14.640625 20.796875 14.398438 L 20.796875 12.398438 L 22.757812 12.398438 L 21.675781 13.757812 C 21.558594 13.878906 21.558594 14.078125 21.675781 14.238281 L 22.757812 15.597656 Z M 19.597656 15.597656"/>
</svg>

<svg xmlns="http://www.w3.org/2000/svg" width="32" height="32" viewBox="0 0 24 24">
    <path d="M22.516 14l1.402-1.719c.078-.12.117-.32.039-.441-.082-.16-.2-.238-.36-.238h-2.8v-1.2c0-.242-.16-.402-.399-.402h-1.082C18.41 6.691 15.45 4.402 12 4.402c-3.45 0-6.41 2.29-7.316 5.598H3.602c-.239 0-.399.16-.399.402v1.2h-2.8c-.16 0-.278.117-.36.199-.078.16-.04.32.039.437L1.484 14 .082 15.719c-.078.12-.117.32-.039.441.082.16.2.238.36.238H4.8c.242 0 .402-.16.402-.398v-.633c1.274 2.563 3.906 4.23 6.797 4.23 2.89 0 5.523-1.667 6.797-4.23V16c0 .238.16.398.402.398h4.399c.16 0 .277-.078.359-.199a.44.44 0 0 0-.039-.441zM12 5.203A6.794 6.794 0 0 1 18.52 10h-.856C16.82 7.633 14.54 6 12 6c-2.54 0-4.82 1.633-5.664 4h-.813C6.363 7.16 8.961 5.203 12 5.203zM16.797 10H7.203C8 8.121 9.922 6.8 12 6.8s4 1.282 4.797 3.2zm-12.793.8h15.992V14h-2.758a.346.346 0 0 0-.16-.04H6.961a.291.291 0 0 0-.149.04H4.005zm12.355 4c-.922 1.477-2.601 2.4-4.359 2.4s-3.398-.923-4.36-2.4zm-11.957.798h-3.16l1.082-1.36c.117-.117.117-.32 0-.48l-1.082-1.36h1.961v2c0 .243.16.403.399.403h.8zM12 18.797A6.833 6.833 0 0 1 5.8 14.8h.923C7.77 16.742 9.809 18 12 18c2.191 0 4.234-1.223 5.313-3.2h.886c-1.12 2.4-3.52 3.997-6.199 3.997zm7.598-3.2v-.796h.8c.239 0 .399-.16.399-.403v-2h1.96l-1.081 1.36c-.117.12-.117.32 0 .48l1.082 1.36zm0 0"/>
</svg>
